**harm	**harte	**timestamp	**phrase	**leadinstrument	**kern
*M4/4	*M4/4	*	*	*	*
*A:	*A:	*	*	*	*A:
1r;	N	0	.	r	1r;
=1	=1	=1	=1	=1	=1
*>A_intro	*>A_intro	*>A_intro	*>A_intro	*>A_intro	*>A_intro
2Im7	A:7	0.498	newline	guitar	2A 2cc# 2ee 2gg#
4-VII	G:maj	1.661	.	guitar	4G 4b 4dd
4IV	D:maj	2.243	.	guitar	4D 4f# 4a
=2	=2	=2	=2	=2	=2
2Im7	A:7	2.824	.	guitar	2A 2cc# 2ee 2gg#
4-VII	G:maj	3.987	.	guitar	4G 4b 4dd
4IV	D:maj	4.569	.	guitar	4D 4f# 4a
=3	=3	=3	=3	=3	=3
2Im7	A:7	5.15	.	guitar	2A 2cc# 2ee 2gg#
4-VII	G:maj	6.313	.	guitar	4G 4b 4dd
4IV	D:maj	6.895	.	guitar	4D 4f# 4a
=4	=4	=4	=4	=4	=4
2Im7	A:7	7.476	.	guitar	2A 2cc# 2ee 2gg#
4-VII	G:maj	8.639	.	guitar	4G 4b 4dd
4IV	D:maj	9.221	.	guitar	4D 4f# 4a
=5	=5	=5	=5	=5	=5
2Im7	A:7	9.802	.	guitar	2A 2cc# 2ee 2gg#
4-VII	G:maj	10.965	.	guitar	4G 4b 4dd
4IV	D:maj	11.547	.	guitar	4D 4f# 4a
=6	=6	=6	=6	=6	=6
2Im7	A:7	12.128	.	guitar	2A 2cc# 2ee 2gg#
4-VII	G:maj	13.291	.	guitar	4G 4b 4dd
4IV	D:maj	13.873	.	guitar	4D 4f# 4a
=7	=7	=7	=7	=7	=7
2Im7	A:7	14.454	.	guitar	2A 2cc# 2ee 2gg#
4-VII	G:maj	15.617	.	guitar	4G 4b 4dd
4IV	D:maj	16.199	.	guitar	4D 4f# 4a
=8	=8	=8	=8	=8	=8
2Im7	A:7	16.78	.	guitar	2A 2cc# 2ee 2gg#
4-VII	G:maj	17.943	.	guitar	4G 4b 4dd
4IV	D:maj	18.525	.	guitar	4D 4f# 4a
=9	=9	=9	=9	=9	=9
*>A_verse	*>A_verse	*>A_verse	*>A_verse	*>A_verse	*>A_verse
2Im7	A:7	19.107	newline	voice	2A 2cc# 2ee 2gg#
4-VII	G:maj	20.192	.	voice	4G 4b 4dd
4IV	D:maj	20.735	.	voice	4D 4f# 4a
=10	=10	=10	=10	=10	=10
2Im7	A:7	21.278	.	voice	2A 2cc# 2ee 2gg#
4-VII	G:maj	22.364	.	voice	4G 4b 4dd
4IV	D:maj	22.906	.	voice	4D 4f# 4a
=11	=11	=11	=11	=11	=11
2Im7	A:7	23.449	.	voice	2A 2cc# 2ee 2gg#
4-VII	G:maj	24.535	.	voice	4G 4b 4dd
4IV	D:maj	25.078	.	voice	4D 4f# 4a
=12	=12	=12	=12	=12	=12
2Im7	A:7	25.621	.	voice	2A 2cc# 2ee 2gg#
4-VII	G:maj	26.706	.	voice	4G 4b 4dd
4IV	D:maj	27.249	.	voice	4D 4f# 4a
=13	=13	=13	=13	=13	=13
2IVm7	D:7	27.792	newline	voice	2D 2f# 2a 2cc#
4-III	C:maj	28.879	.	voice	4C 4e 4g
4-VII	G:maj	29.422	.	voice	4G 4b 4dd
=14	=14	=14	=14	=14	=14
2IVm7	D:7	29.965	.	voice	2D 2f# 2a 2cc#
4-III	C:maj	31.051	.	voice	4C 4e 4g
4-VII	G:maj	31.595	.	voice	4G 4b 4dd
=15	=15	=15	=15	=15	=15
2IVm7	D:7	32.138	.	voice	2D 2f# 2a 2cc#
4-III	C:maj	33.224	.	voice	4C 4e 4g
4-VII	G:maj	33.767	.	voice	4G 4b 4dd
=16	=16	=16	=16	=16	=16
2IVm7	D:7	34.311	.	voice	2D 2f# 2a 2cc#
4-III	C:maj	35.397	.	voice	4C 4e 4g
4-VII	G:maj	35.94	.	voice	4G 4b 4dd
=17	=17	=17	=17	=17	=17
2Im7	A:7	36.483	newline	voice	2A 2cc# 2ee 2gg#
4-VII	G:maj	37.555	.	voice	4G 4b 4dd
4IV	D:maj	38.091	.	voice	4D 4f# 4a
=18	=18	=18	=18	=18	=18
2Im7	A:7	38.626	.	voice	2A 2cc# 2ee 2gg#
4-VII	G:maj	39.698	.	voice	4G 4b 4dd
4IV	D:maj	40.233	.	voice	4D 4f# 4a
=19	=19	=19	=19	=19	=19
*>B_chorus	*>B_chorus	*>B_chorus	*>B_chorus	*>B_chorus	*>B_chorus
1v	E:min	40.769	newline	voice	1E 1g 1b
=20	=20	=20	=20	=20	=20
1v	E:min	42.938	.	voice	1E 1g 1b
=21	=21	=21	=21	=21	=21
2-III	C:maj	45.106	.	voice	2C 2e 2g
2-VI	F:maj	46.191	.	voice	2F 2a 2cc
=22	=22	=22	=22	=22	=22
2-III	C:maj	47.275	.	voice	2C 2e 2g
2IV	D:maj	48.36	.	voice	2D 2f# 2a
=23	=23	=23	=23	=23	=23
1IV	D:maj	49.444	.	voice	1D 1f# 1a
=24	=24	=24	=24	=24	=24
*>A_preverse	*>A_preverse	*>A_preverse	*>A_preverse	*>A_preverse	*>A_preverse
2Im7	A:7	51.613	newline	guitar	2A 2cc# 2ee 2gg#
4-VII	G:maj	52.708	.	guitar	4G 4b 4dd
4IV	D:maj	53.255	.	guitar	4D 4f# 4a
=25	=25	=25	=25	=25	=25
2Im7	A:7	53.803	.	guitar	2A 2cc# 2ee 2gg#
4-VII	G:maj	54.898	.	guitar	4G 4b 4dd
4IV	D:maj	55.446	.	guitar	4D 4f# 4a
=26	=26	=26	=26	=26	=26
2Im7	A:7	55.994	.	guitar	2A 2cc# 2ee 2gg#
4-VII	G:maj	57.089	.	guitar	4G 4b 4dd
4IV	D:maj	57.636	.	guitar	4D 4f# 4a
=27	=27	=27	=27	=27	=27
2Im7	A:7	58.184	.	guitar	2A 2cc# 2ee 2gg#
4-VII	G:maj	59.279	.	guitar	4G 4b 4dd
4IV	D:maj	59.827	.	guitar	4D 4f# 4a
=28	=28	=28	=28	=28	=28
*>A_verse	*>A_verse	*>A_verse	*>A_verse	*>A_verse	*>A_verse
2Im7	A:7	60.375	newline	voice	2A 2cc# 2ee 2gg#
4-VII	G:maj	61.458	.	voice	4G 4b 4dd
4IV	D:maj	61.999	.	voice	4D 4f# 4a
=29	=29	=29	=29	=29	=29
2Im7	A:7	62.541	.	voice	2A 2cc# 2ee 2gg#
4-VII	G:maj	63.624	.	voice	4G 4b 4dd
4IV	D:maj	64.166	.	voice	4D 4f# 4a
=30	=30	=30	=30	=30	=30
2Im7	A:7	64.708	.	voice	2A 2cc# 2ee 2gg#
4-VII	G:maj	65.791	.	voice	4G 4b 4dd
4IV	D:maj	66.332	.	voice	4D 4f# 4a
=31	=31	=31	=31	=31	=31
2Im7	A:7	66.874	.	voice	2A 2cc# 2ee 2gg#
4-VII	G:maj	67.957	.	voice	4G 4b 4dd
4IV	D:maj	68.499	.	voice	4D 4f# 4a
=32	=32	=32	=32	=32	=32
2IVm7	D:7	69.041	newline	voice	2D 2f# 2a 2cc#
4-III	C:maj	70.129	.	voice	4C 4e 4g
4-VII	G:maj	70.673	.	voice	4G 4b 4dd
=33	=33	=33	=33	=33	=33
2IVm7	D:7	71.217	.	voice	2D 2f# 2a 2cc#
4-III	C:maj	72.305	.	voice	4C 4e 4g
4-VII	G:maj	72.849	.	voice	4G 4b 4dd
=34	=34	=34	=34	=34	=34
2IVm7	D:7	73.393	.	voice	2D 2f# 2a 2cc#
4-III	C:maj	74.481	.	voice	4C 4e 4g
4-VII	G:maj	75.026	.	voice	4G 4b 4dd
=35	=35	=35	=35	=35	=35
2IVm7	D:7	75.57	.	voice	2D 2f# 2a 2cc#
4-III	C:maj	76.658	.	voice	4C 4e 4g
4-VII	G:maj	77.202	.	voice	4G 4b 4dd
=36	=36	=36	=36	=36	=36
2Im7	A:7	77.746	newline	voice	2A 2cc# 2ee 2gg#
4-VII	G:maj	78.83	.	voice	4G 4b 4dd
4IV	D:maj	79.372	.	voice	4D 4f# 4a
=37	=37	=37	=37	=37	=37
2Im7	A:7	79.914	.	voice	2A 2cc# 2ee 2gg#
4-VII	G:maj	80.997	.	voice	4G 4b 4dd
4IV	D:maj	81.539	.	voice	4D 4f# 4a
=38	=38	=38	=38	=38	=38
*>B_chorus	*>B_chorus	*>B_chorus	*>B_chorus	*>B_chorus	*>B_chorus
1v	E:min	82.081	newline	voice	1E 1g 1b
=39	=39	=39	=39	=39	=39
1v	E:min	84.258	.	voice	1E 1g 1b
=40	=40	=40	=40	=40	=40
2-III	C:maj	86.435	.	voice	2C 2e 2g
2-VI	F:maj	87.523	.	voice	2F 2a 2cc
=41	=41	=41	=41	=41	=41
2-III	C:maj	88.612	.	voice	2C 2e 2g
2IV	D:maj	89.7	.	voice	2D 2f# 2a
=42	=42	=42	=42	=42	=42
1IV	D:maj	90.789	.	voice	1D 1f# 1a
=43	=43	=43	=43	=43	=43
*>A_	*>A_	*>A_	*>A_	*>A_	*>A_
2Im7	A:7	92.966	newline	voice	2A 2cc# 2ee 2gg#
4-VII	G:maj	94.051	.	voice	4G 4b 4dd
4IV	D:maj	94.593	.	voice	4D 4f# 4a
=44	=44	=44	=44	=44	=44
2Im7	A:7	95.135	.	voice	2A 2cc# 2ee 2gg#
4-VII	G:maj	96.22	.	voice	4G 4b 4dd
4IV	D:maj	96.763	.	voice	4D 4f# 4a
=45	=45	=45	=45	=45	=45
2Im7	A:7	97.305	.	voice	2A 2cc# 2ee 2gg#
4-VII	G:maj	98.39	.	voice	4G 4b 4dd
4IV	D:maj	98.932	.	voice	4D 4f# 4a
=46	=46	=46	=46	=46	=46
2Im7	A:7	99.475	.	voice	2A 2cc# 2ee 2gg#
4-VII	G:maj	100.56	.	voice	4G 4b 4dd
4IV	D:maj	101.102	.	voice	4D 4f# 4a
=47	=47	=47	=47	=47	=47
*>A_solo	*>A_solo	*>A_solo	*>A_solo	*>A_solo	*>A_solo
2Im7	A:7	101.644	newline	horns	2A 2cc# 2ee 2gg#
4-VII	G:maj	102.73	.	horns	4G 4b 4dd
4IV	D:maj	103.273	.	horns	4D 4f# 4a
=48	=48	=48	=48	=48	=48
2Im7	A:7	103.815	.	horns	2A 2cc# 2ee 2gg#
4-VII	G:maj	104.901	.	horns	4G 4b 4dd
4IV	D:maj	105.443	.	horns	4D 4f# 4a
=49	=49	=49	=49	=49	=49
2Im7	A:7	105.986	.	horns	2A 2cc# 2ee 2gg#
4-VII	G:maj	107.071	.	horns	4G 4b 4dd
4IV	D:maj	107.614	.	horns	4D 4f# 4a
=50	=50	=50	=50	=50	=50
2Im7	A:7	108.157	.	horns	2A 2cc# 2ee 2gg#
4-VII	G:maj	109.242	.	horns	4G 4b 4dd
4IV	D:maj	109.785	.	horns	4D 4f# 4a
=51	=51	=51	=51	=51	=51
2Im7	A:7	110.327	.	horns	2A 2cc# 2ee 2gg#
4-VII	G:maj	111.413	.	horns	4G 4b 4dd
4IV	D:maj	111.955	.	horns	4D 4f# 4a
=52	=52	=52	=52	=52	=52
2Im7	A:7	112.498	.	horns	2A 2cc# 2ee 2gg#
4-VII	G:maj	113.584	.	horns	4G 4b 4dd
4IV	D:maj	114.126	.	horns	4D 4f# 4a
=53	=53	=53	=53	=53	=53
2Im7	A:7	114.669	.	horns	2A 2cc# 2ee 2gg#
4-VII	G:maj	115.754	.	horns	4G 4b 4dd
4IV	D:maj	116.297	.	horns	4D 4f# 4a
=54	=54	=54	=54	=54	=54
2Im7	A:7	116.84	.	horns	2A 2cc# 2ee 2gg#
4-VII	G:maj	117.925	.	horns	4G 4b 4dd
4IV	D:maj	118.468	.	horns	4D 4f# 4a
=55	=55	=55	=55	=55	=55
2Im7	A:7	119.01	newline	guitar	2A 2cc# 2ee 2gg#
4-VII	G:maj	120.097	.	guitar	4G 4b 4dd
4IV	D:maj	120.64	.	guitar	4D 4f# 4a
=56	=56	=56	=56	=56	=56
2Im7	A:7	121.184	.	guitar	2A 2cc# 2ee 2gg#
4-VII	G:maj	122.27	.	guitar	4G 4b 4dd
4IV	D:maj	122.814	.	guitar	4D 4f# 4a
=57	=57	=57	=57	=57	=57
2Im7	A:7	123.357	.	guitar	2A 2cc# 2ee 2gg#
4-VII	G:maj	124.444	.	guitar	4G 4b 4dd
4IV	D:maj	124.987	.	guitar	4D 4f# 4a
=58	=58	=58	=58	=58	=58
2Im7	A:7	125.53	.	guitar	2A 2cc# 2ee 2gg#
4-VII	G:maj	126.617	.	guitar	4G 4b 4dd
4IV	D:maj	127.16	.	guitar	4D 4f# 4a
=59	=59	=59	=59	=59	=59
2Im7	A:7	127.704	.	guitar	2A 2cc# 2ee 2gg#
4-VII	G:maj	128.79	.	guitar	4G 4b 4dd
4IV	D:maj	129.334	.	guitar	4D 4f# 4a
=60	=60	=60	=60	=60	=60
2Im7	A:7	129.877	.	guitar	2A 2cc# 2ee 2gg#
4-VII	G:maj	130.964	.	guitar	4G 4b 4dd
4IV	D:maj	131.507	.	guitar	4D 4f# 4a
=61	=61	=61	=61	=61	=61
2Im7	A:7	132.05	.	guitar	2A 2cc# 2ee 2gg#
4-VII	G:maj	133.137	.	guitar	4G 4b 4dd
4IV	D:maj	133.68	.	guitar	4D 4f# 4a
=62	=62	=62	=62	=62	=62
2Im7	A:7	134.224	.	guitar	2A 2cc# 2ee 2gg#
4-VII	G:maj	135.31	.	guitar	4G 4b 4dd
4IV	D:maj	135.854	.	guitar	4D 4f# 4a
=63	=63	=63	=63	=63	=63
2Im7	A:7	136.397	.	guitar	2A 2cc# 2ee 2gg#
4-VII	G:maj	137.484	.	guitar	4G 4b 4dd
4IV	D:maj	138.027	.	guitar	4D 4f# 4a
=64	=64	=64	=64	=64	=64
2Im7	A:7	138.57	.	guitar	2A 2cc# 2ee 2gg#
4-VII	G:maj	139.657	.	guitar	4G 4b 4dd
4IV	D:maj	140.2	.	guitar	4D 4f# 4a
=65	=65	=65	=65	=65	=65
2Im7	A:7	140.744	.	guitar	2A 2cc# 2ee 2gg#
4-VII	G:maj	141.83	.	guitar	4G 4b 4dd
4IV	D:maj	142.374	.	guitar	4D 4f# 4a
=66	=66	=66	=66	=66	=66
2Im7	A:7	142.917	.	guitar	2A 2cc# 2ee 2gg#
4-VII	G:maj	144.004	.	guitar	4G 4b 4dd
4IV	D:maj	144.547	.	guitar	4D 4f# 4a
=67	=67	=67	=67	=67	=67
2Im7	A:7	145.09	.	guitar	2A 2cc# 2ee 2gg#
4-VII	G:maj	146.177	.	guitar	4G 4b 4dd
4IV	D:maj	146.72	.	guitar	4D 4f# 4a
=68	=68	=68	=68	=68	=68
2Im7	A:7	147.264	.	guitar	2A 2cc# 2ee 2gg#
4-VII	G:maj	148.35	.	guitar	4G 4b 4dd
4IV	D:maj	148.894	.	guitar	4D 4f# 4a
=69	=69	=69	=69	=69	=69
2Im7	A:7	149.437	.	guitar	2A 2cc# 2ee 2gg#
4-VII	G:maj	150.524	.	guitar	4G 4b 4dd
4IV	D:maj	151.067	.	guitar	4D 4f# 4a
=70	=70	=70	=70	=70	=70
2Im7	A:7	151.61	.	guitar	2A 2cc# 2ee 2gg#
4-VII	G:maj	152.697	.	guitar	4G 4b 4dd
4IV	D:maj	153.24	.	guitar	4D 4f# 4a
=71	=71	=71	=71	=71	=71
2Im7	A:7	153.784	.	guitar	2A 2cc# 2ee 2gg#
4-VII	G:maj	154.87	.	guitar	4G 4b 4dd
4IV	D:maj	155.414	.	guitar	4D 4f# 4a
=72	=72	=72	=72	=72	=72
2Im7	A:7	155.957	.	guitar	2A 2cc# 2ee 2gg#
4-VII	G:maj	157.044	.	guitar	4G 4b 4dd
4IV	D:maj	157.587	.	guitar	4D 4f# 4a
=73	=73	=73	=73	=73	=73
2Im7	A:7	158.13	.	guitar	2A 2cc# 2ee 2gg#
4-VII	G:maj	159.217	.	guitar	4G 4b 4dd
4IV	D:maj	159.76	.	guitar	4D 4f# 4a
=74	=74	=74	=74	=74	=74
2Im7	A:7	160.304	.	guitar	2A 2cc# 2ee 2gg#
4-VII	G:maj	161.39	.	guitar	4G 4b 4dd
4IV	D:maj	161.934	.	guitar	4D 4f# 4a
=75	=75	=75	=75	=75	=75
2Im7	A:7	162.477	.	guitar	2A 2cc# 2ee 2gg#
4-VII	G:maj	163.564	.	guitar	4G 4b 4dd
4IV	D:maj	164.107	.	guitar	4D 4f# 4a
=76	=76	=76	=76	=76	=76
2Im7	A:7	164.65	.	guitar	2A 2cc# 2ee 2gg#
4-VII	G:maj	165.737	.	guitar	4G 4b 4dd
4IV	D:maj	166.28	.	guitar	4D 4f# 4a
=77	=77	=77	=77	=77	=77
2Im7	A:7	166.824	.	guitar	2A 2cc# 2ee 2gg#
4-VII	G:maj	167.91	.	guitar	4G 4b 4dd
4IV	D:maj	168.454	.	guitar	4D 4f# 4a
=78	=78	=78	=78	=78	=78
2Im7	A:7	168.997	.	guitar	2A 2cc# 2ee 2gg#
4-VII	G:maj	170.084	.	guitar	4G 4b 4dd
4IV	D:maj	170.627	.	guitar	4D 4f# 4a
=79	=79	=79	=79	=79	=79
2Im7	A:7	171.17	.	guitar	2A 2cc# 2ee 2gg#
4-VII	G:maj	172.257	.	guitar	4G 4b 4dd
4IV	D:maj	172.8	.	guitar	4D 4f# 4a
=80	=80	=80	=80	=80	=80
2Im7	A:7	173.344	.	guitar	2A 2cc# 2ee 2gg#
4-VII	G:maj	174.43	.	guitar	4G 4b 4dd
4IV	D:maj	174.974	.	guitar	4D 4f# 4a
=81	=81	=81	=81	=81	=81
2Im7	A:7	175.517	.	guitar	2A 2cc# 2ee 2gg#
4-VII	G:maj	176.604	.	guitar	4G 4b 4dd
4IV	D:maj	177.147	.	guitar	4D 4f# 4a
=82	=82	=82	=82	=82	=82
2Im7	A:7	177.69	.	guitar	2A 2cc# 2ee 2gg#
4-VII	G:maj	178.777	.	guitar	4G 4b 4dd
4IV	D:maj	179.32	.	guitar	4D 4f# 4a
=83	=83	=83	=83	=83	=83
*>A_verse	*>A_verse	*>A_verse	*>A_verse	*>A_verse	*>A_verse
2Im7	A:7	179.864	newline	voice	2A 2cc# 2ee 2gg#
4-VII	G:maj	180.946	.	voice	4G 4b 4dd
4IV	D:maj	181.487	.	voice	4D 4f# 4a
=84	=84	=84	=84	=84	=84
2Im7	A:7	182.028	.	voice	2A 2cc# 2ee 2gg#
4-VII	G:maj	183.111	.	voice	4G 4b 4dd
4IV	D:maj	183.652	.	voice	4D 4f# 4a
=85	=85	=85	=85	=85	=85
2Im7	A:7	184.193	.	voice	2A 2cc# 2ee 2gg#
4-VII	G:maj	185.275	.	voice	4G 4b 4dd
4IV	D:maj	185.816	.	voice	4D 4f# 4a
=86	=86	=86	=86	=86	=86
2Im7	A:7	186.357	.	voice	2A 2cc# 2ee 2gg#
4-VII	G:maj	187.44	.	voice	4G 4b 4dd
4IV	D:maj	187.981	.	voice	4D 4f# 4a
=87	=87	=87	=87	=87	=87
2IVm7	D:7	188.522	newline	voice	2D 2f# 2a 2cc#
4-III	C:maj	189.607	.	voice	4C 4e 4g
4-VII	G:maj	190.149	.	voice	4G 4b 4dd
=88	=88	=88	=88	=88	=88
2IVm7	D:7	190.691	.	voice	2D 2f# 2a 2cc#
4-III	C:maj	191.776	.	voice	4C 4e 4g
4-VII	G:maj	192.318	.	voice	4G 4b 4dd
=89	=89	=89	=89	=89	=89
2IVm7	D:7	192.861	.	voice	2D 2f# 2a 2cc#
4-III	C:maj	193.945	.	voice	4C 4e 4g
4-VII	G:maj	194.488	.	voice	4G 4b 4dd
=90	=90	=90	=90	=90	=90
2IVm7	D:7	195.03	.	voice	2D 2f# 2a 2cc#
4-III	C:maj	196.115	.	voice	4C 4e 4g
4-VII	G:maj	196.657	.	voice	4G 4b 4dd
=91	=91	=91	=91	=91	=91
2Im7	A:7	197.2	newline	voice	2A 2cc# 2ee 2gg#
4-VII	G:maj	198.291	.	voice	4G 4b 4dd
4IV	D:maj	198.837	.	voice	4D 4f# 4a
=92	=92	=92	=92	=92	=92
2Im7	A:7	199.383	.	voice	2A 2cc# 2ee 2gg#
4-VII	G:maj	200.474	.	voice	4G 4b 4dd
4IV	D:maj	201.02	.	voice	4D 4f# 4a
=93	=93	=93	=93	=93	=93
*>B_chorus	*>B_chorus	*>B_chorus	*>B_chorus	*>B_chorus	*>B_chorus
1v	E:min	201.566	newline	voice	1E 1g 1b
=94	=94	=94	=94	=94	=94
1v	E:min	203.747	.	voice	1E 1g 1b
=95	=95	=95	=95	=95	=95
2-III	C:maj	205.928	.	voice	2C 2e 2g
2-VI	F:maj	207.019	.	voice	2F 2a 2cc
=96	=96	=96	=96	=96	=96
2-III	C:maj	208.11	.	voice	2C 2e 2g
2IV	D:maj	209.2	.	voice	2D 2f# 2a
=97	=97	=97	=97	=97	=97
1IV	D:maj	210.291	.	voice	1D 1f# 1a
=98	=98	=98	=98	=98	=98
*>A_preverse	*>A_preverse	*>A_preverse	*>A_preverse	*>A_preverse	*>A_preverse
2Im7	A:7	212.472	newline	voice	2A 2cc# 2ee 2gg#
4-VII	G:maj	213.553	.	voice	4G 4b 4dd
4IV	D:maj	214.093	.	voice	4D 4f# 4a
=99	=99	=99	=99	=99	=99
2Im7	A:7	214.633	.	voice	2A 2cc# 2ee 2gg#
4-VII	G:maj	215.713	.	voice	4G 4b 4dd
4IV	D:maj	216.253	.	voice	4D 4f# 4a
=100	=100	=100	=100	=100	=100
2Im7	A:7	216.793	.	voice	2A 2cc# 2ee 2gg#
4-VII	G:maj	217.873	.	voice	4G 4b 4dd
4IV	D:maj	218.414	.	voice	4D 4f# 4a
=101	=101	=101	=101	=101	=101
2Im7	A:7	218.954	.	voice	2A 2cc# 2ee 2gg#
4-VII	G:maj	220.034	.	voice	4G 4b 4dd
4IV	D:maj	220.574	.	voice	4D 4f# 4a
=102	=102	=102	=102	=102	=102
*>A_solo	*>A_solo	*>A_solo	*>A_solo	*>A_solo	*>A_solo
2Im7	A:7	221.114	newline	horns	2A 2cc# 2ee 2gg#
4-VII	G:maj	222.199	.	horns	4G 4b 4dd
4IV	D:maj	222.742	.	horns	4D 4f# 4a
=103	=103	=103	=103	=103	=103
2Im7	A:7	223.284	.	horns	2A 2cc# 2ee 2gg#
4-VII	G:maj	224.369	.	horns	4G 4b 4dd
4IV	D:maj	224.912	.	horns	4D 4f# 4a
=104	=104	=104	=104	=104	=104
2Im7	A:7	225.454	.	horns	2A 2cc# 2ee 2gg#
4-VII	G:maj	226.539	.	horns	4G 4b 4dd
4IV	D:maj	227.082	.	horns	4D 4f# 4a
=105	=105	=105	=105	=105	=105
2Im7	A:7	227.624	.	horns	2A 2cc# 2ee 2gg#
4-VII	G:maj	228.709	.	horns	4G 4b 4dd
4IV	D:maj	229.252	.	horns	4D 4f# 4a
=106	=106	=106	=106	=106	=106
2Im7	A:7	229.794	.	horns	2A 2cc# 2ee 2gg#
4-VII	G:maj	230.879	.	horns	4G 4b 4dd
4IV	D:maj	231.422	.	horns	4D 4f# 4a
=107	=107	=107	=107	=107	=107
2Im7	A:7	231.964	.	horns	2A 2cc# 2ee 2gg#
4-VII	G:maj	233.05	.	horns	4G 4b 4dd
4IV	D:maj	233.592	.	horns	4D 4f# 4a
=108	=108	=108	=108	=108	=108
2Im7	A:7	234.135	.	horns	2A 2cc# 2ee 2gg#
4-VII	G:maj	235.22	.	horns	4G 4b 4dd
4IV	D:maj	235.762	.	horns	4D 4f# 4a
=109	=109	=109	=109	=109	=109
2Im7	A:7	236.305	.	horns	2A 2cc# 2ee 2gg#
4-VII	G:maj	237.39	.	horns	4G 4b 4dd
4IV	D:maj	237.932	.	horns	4D 4f# 4a
=110	=110	=110	=110	=110	=110
2Im7	A:7	238.475	newline	guitar	2A 2cc# 2ee 2gg#
4-VII	G:maj	239.562	.	guitar	4G 4b 4dd
4IV	D:maj	240.106	.	guitar	4D 4f# 4a
=111	=111	=111	=111	=111	=111
2Im7	A:7	240.649	.	guitar	2A 2cc# 2ee 2gg#
4-VII	G:maj	241.737	.	guitar	4G 4b 4dd
4IV	D:maj	242.281	.	guitar	4D 4f# 4a
=112	=112	=112	=112	=112	=112
2Im7	A:7	242.824	.	guitar	2A 2cc# 2ee 2gg#
4-VII	G:maj	243.912	.	guitar	4G 4b 4dd
4IV	D:maj	244.455	.	guitar	4D 4f# 4a
=113	=113	=113	=113	=113	=113
2Im7	A:7	244.999	.	guitar	2A 2cc# 2ee 2gg#
4-VII	G:maj	246.086	.	guitar	4G 4b 4dd
4IV	D:maj	246.63	.	guitar	4D 4f# 4a
=114	=114	=114	=114	=114	=114
2Im7	A:7	247.174	.	guitar	2A 2cc# 2ee 2gg#
4-VII	G:maj	248.261	.	guitar	4G 4b 4dd
4IV	D:maj	248.805	.	guitar	4D 4f# 4a
=115	=115	=115	=115	=115	=115
2Im7	A:7	249.348	.	guitar	2A 2cc# 2ee 2gg#
4-VII	G:maj	250.436	.	guitar	4G 4b 4dd
4IV	D:maj	250.98	.	guitar	4D 4f# 4a
=116	=116	=116	=116	=116	=116
2Im7	A:7	251.523	.	guitar	2A 2cc# 2ee 2gg#
4-VII	G:maj	252.611	.	guitar	4G 4b 4dd
4IV	D:maj	253.154	.	guitar	4D 4f# 4a
=117	=117	=117	=117	=117	=117
2Im7	A:7	253.698	.	guitar	2A 2cc# 2ee 2gg#
4-VII	G:maj	254.785	.	guitar	4G 4b 4dd
4IV	D:maj	255.329	.	guitar	4D 4f# 4a
=118	=118	=118	=118	=118	=118
2Im7	A:7	255.873	.	guitar	2A 2cc# 2ee 2gg#
4-VII	G:maj	256.96	.	guitar	4G 4b 4dd
4IV	D:maj	257.504	.	guitar	4D 4f# 4a
=119	=119	=119	=119	=119	=119
2Im7	A:7	258.048	.	guitar	2A 2cc# 2ee 2gg#
4-VII	G:maj	259.135	.	guitar	4G 4b 4dd
4IV	D:maj	259.679	.	guitar	4D 4f# 4a
=120	=120	=120	=120	=120	=120
2Im7	A:7	260.222	.	guitar	2A 2cc# 2ee 2gg#
4-VII	G:maj	261.31	.	guitar	4G 4b 4dd
4IV	D:maj	261.853	.	guitar	4D 4f# 4a
=121	=121	=121	=121	=121	=121
2Im7	A:7	262.397	.	guitar	2A 2cc# 2ee 2gg#
4-VII	G:maj	263.484	.	guitar	4G 4b 4dd
4IV	D:maj	264.028	.	guitar	4D 4f# 4a
=122	=122	=122	=122	=122	=122
2Im7	A:7	264.572	newline	fadeout	2A 2cc# 2ee 2gg#
4-VII	G:maj	265.657	.	fadeout	4G 4b 4dd
4IV	D:maj	266.199	.	fadeout	4D 4f# 4a
=123	=123	=123	=123	=123	=123
2Im7	A:7	266.741	.	fadeout	2A 2cc# 2ee 2gg#
4-VII	G:maj	267.826	.	fadeout	4G 4b 4dd
4IV	D:maj	268.369	.	fadeout	4D 4f# 4a
=124	=124	=124	=124	=124	=124
2Im7	A:7	268.911	.	fadeout	2A 2cc# 2ee 2gg#
4-VII	G:maj	269.996	.	fadeout	4G 4b 4dd
4IV	D:maj	270.538	.	fadeout	4D 4f# 4a
=125	=125	=125	=125	=125	=125
2Im7	A:7	271.081	.	fadeout	2A 2cc# 2ee 2gg#
4-VII	G:maj	272.166	.	fadeout	4G 4b 4dd
4IV	D:maj	272.708	.	fadeout	4D 4f# 4a
=126	=126	=126	=126	=126	=126
2Im7	A:7	273.25	newline	guitar	2A 2cc# 2ee 2gg#
4-VII	G:maj	274.346	.	guitar	4G 4b 4dd
4IV	D:maj	274.894	.	guitar	4D 4f# 4a
=127	=127	=127	=127	=127	=127
2Im7	A:7	275.442	.	guitar	2A 2cc# 2ee 2gg#
4-VII	G:maj	276.538	.	guitar	4G 4b 4dd
4IV	D:maj	277.086	.	guitar	4D 4f# 4a
=128	=128	=128	=128	=128	=128
2Im7	A:7	277.634	.	guitar	2A 2cc# 2ee 2gg#
4-VII	G:maj	278.73	.	guitar	4G 4b 4dd
4IV	D:maj	279.278	.	guitar	4D 4f# 4a
=129	=129	=129	=129	=129	=129
2Im7	A:7	279.826	.	guitar	2A 2cc# 2ee 2gg#
4-VII	G:maj	280.922	.	guitar	4G 4b 4dd
4IV	D:maj	281.47	.	guitar	4D 4f# 4a
1r;	N	282.018	.	r	1r;
1r;	N	286.063	.	r	1r;
*-	*-	*-	*-	*-	*-
!!!OTL: I Want A New Drug
!!!COC: Huey Lewis
!!!BillboardChartDate: 1984/05/12
!!!BillboardPeak: 6
!!!BillboardWeeksOnChart: 19
!!!SampleTargetRank: 77
!!!SampleActualRank: 77
!!!SampleID#: 0430
!!!RDF**harmony: **recip + pitch class of root + harmonic quality
!!!RDF**harte: Chris Harte's syntax, used by MIREX
!!!RDF**phrase: newline = linebreak in original McGill transcription
!!!RDF**timestamp: McGill audio timestamp in seconds
!!!RDF**leadinstrument: original McGill primary instrumentation annotation
!!!RDT: 2017/01/12/
!!!ENC: Nathaniel Condit-Schultz
!!!EST: Awating manual error checking and editing.
